X: 20782
M: 2/4
L: 1/16
K: C
V: 1 name="2"
d2de gfed | e2e2 c4 | B2Bc dcdB | c2e2 G4 |\
d2de gfed | e2e2 c4 | B2Bc dcdB | c2e2"^D.C."c2 |]
d2de fefd | e2e2 c4 | B2Bc dcdB | c2e2 G4 |\
d2de fefd | e2e2 c4 | dedc BcBA | G^FAG FEF"^D.C."D |]


